!! 00007] TT[TB
!! Eigene Aufnahme
!!!OTL: Gusu fengguang, Da jiulianhuan)
!!!ARE: Asia, China,ÿJiangsu, Suzhou
!! Ethnic Group: Han
!! III, 492
!!!SCT: C0169A
!!!YEM: Copyright 1995, estate of Helmut Schaffrath.
**kern
*ICvox
*Ivox
!! Mixed meters:  2/4; 3/4
*M3/4
*k[f#c#]
*D:
{8.b
16a
16f#
16a
16e
16f#
=1
4.a
8b
=2
8.dd
16b
16aa
16ff#
16ee
16ff#
=3
2dd}
=4
{16ff#
16b
16dd
16ee
16ff#
16ee
16aa
16ff#
=5
8ee
16ff#
16ee
16dd
16b
8a
=6
16b
8dd
16b
16b
16a
16a
16f#
=7
2a}
=8
{16a
16f#
16a
16b
4dd
=9
16aa
16ff#
16ff#
16ee
4dd
=10
16ff#
16ee
16ee
16dd
16f#
16a
16b
16dd
=11
4a}
{8a
16a
16f#
=12
16aa
16ff#
16ff#
16ee
8dd
16ee
16dd
=13
8b
8dd
8a
16b
16a
=14
8.f#
16e
4d}
=15
{16.f#
32a
16f#
16a
16b
16a
16dd
16b
=16
4a}
{8a
16a
16f#
=17
16aa
16ff#
16ff#
16ee
8dd
16ee
16dd
=18
8b
8dd
8a
16b
16a
=19
8.f#
16e
4d}
=20
{4b
8b
8cc#
=21
8.b
16a
8f#
8a
=22
8b
4b
8cc#
=23
8b
4b
8dd}
=24
{8ee
8dd
8ff#
8ee
=25
8.dd
16b
8ee
8cc#
=26
8ee
4b
8cc#
=27
16b
16cc#
16b
16a
16f#
16a
16e
16f#
=28
4.a
8f#}
=29
{16.b
32dd
16ee
16ff#
16ee
16dd
16b
16dd
=30
4.a
16dd
16b
=31
8a
4a
8b
=32
8ee
8dd
8ff#
8ee
=33
4dd
8r}
{8dd
=34
8.ee
16dd
8ff#
8ee
=35
16ff#
8dd
16b
8ee
8cc#
=36
8ee
4b
8cc#}
=37
{16b
16cc#
16b
16a
16f#
16a
16e
16f#
=38
16a
16f#
4a
16b
16a
=39
8.f#
16e
8d
16B
16d
=40
4.e
8f#}
=41
{8.a
16f#
8dd
16ee
16dd
=42
16.b
32dd
16b
16a
4f#}
=43
{8a
8b
16b
16a
16a
16f#
=44
16.e
32f#
16e
16f#
16g
16f#
16g
16a
=45
8.f#
16e
4d}
==
!!!AGN: Xiaodiao, Shidiao, Jiandianhua diao, Matou diao, Manjianghong diao
!! Hier sind viele Weisen zusammengetragen. Wird von Streich-, Matouqin)
!!    und Zupfinstrumenten begleitet. Die Saengerin imitiert die
!!    Zwischenspiele. Charakter der Lokaloper. Saengerin: Huang Bai
!!    +++Dieses Lied wurde GETEILT!! Der 2. u. 3. Teil folgt unter gleicher
!!    Signatur. Mehrere Verzierungen. Vor- und Zwischenspiele weggelassen.
!!!ONB: ESAC (Essen Associative Code) Database: CHINA
!!!AMT: irregular
!!!AIN: vox
!!!EED: Helmut Schaffrath
!!!EEV: 1.0
*-
